src/assets/flags/RON.svg

<svg width="512" height="512" viewBox="0 0 512 512" fill="none" xmlns="http://www.w3.org/2000/svg">
<mask id="mask0_517_219" style="mask-type:alpha" maskUnits="userSpaceOnUse" x="0" y="0" width="512" height="512">
<path d="M512 256C512 114.615 397.385 0 256 0C114.615 0 0 114.615 0 256C0 397.385 114.615 512 256 512C397.385 512 512 397.385 512 256Z" fill="white"/>
</mask>
<g mask="url(#mask0_517_219)">
<path d="M167 512L147.7 258.2L167 0H345L377.3 254.9L345 512H167Z" fill="#FFDA44"/>
<path d="M0 512L0 0H167L167 512H0Z" fill="#0052B4"/>
<path d="M345 512L345 0H512V512H345Z" fill="#D80027"/>
</g>
</svg>

<svg width="512" height="512" viewBox="0 0 512 512" fill="none" xmlns="http://www.w3.org/2000/svg"><mask id="a" style="mask-type:alpha" maskUnits="userSpaceOnUse" x="0" y="0" width="512" height="512" viewBox="0 0 512 512"><path d="M512 256C512 114.615 397.385 0 256 0S0 114.615 0 256s114.615 256 256 256 256-114.615 256-256z" fill="#fff"/></mask><g mask="url(#a)"><path d="m167 512-19.3-253.8L167 0h178l32.3 254.9L345 512H167z" fill="#FFDA44"/><path d="M0 512V0h167v512H0z" fill="#0052B4"/><path d="M345 512V0h167v512H345z" fill="#D80027"/></g></svg>
